icons/svg/shields/h_gray_blue_arc_big_shield.svg

<?xml version="1.0" encoding="UTF-8" standalone="no"?>
<!-- Generator: Adobe Illustrator 16.0.4, SVG Export Plug-In . SVG Version: 6.00 Build 0)  -->

<svg
   xmlns:dc="http://purl.org/dc/elements/1.1/"
   xmlns:cc="http://creativecommons.org/ns#"
   xmlns:rdf="http://www.w3.org/1999/02/22-rdf-syntax-ns#"
   xmlns:svg="http://www.w3.org/2000/svg"
   xmlns="http://www.w3.org/2000/svg"
   xmlns:sodipodi="http://sodipodi.sourceforge.net/DTD/sodipodi-0.dtd"
   xmlns:inkscape="http://www.inkscape.org/namespaces/inkscape"
   version="1.1"
   id="Слой_1"
   x="0px"
   y="0px"
   width="24"
   height="24"
   viewBox="0 0 23.999999 24"
   enable-background="new 0 0 17.113 17.143"
   xml:space="preserve"
   inkscape:version="0.91 r"
   sodipodi:docname="h_gray_blue_arc_big_shield.svg"><metadata
     id="metadata13"><rdf:RDF><cc:Work
         rdf:about=""><dc:format>image/svg+xml</dc:format><dc:type
           rdf:resource="http://purl.org/dc/dcmitype/StillImage" /><dc:title></dc:title></cc:Work></rdf:RDF></metadata><defs
     id="defs11" /><sodipodi:namedview
     pagecolor="#ffffff"
     bordercolor="#666666"
     borderopacity="1"
     objecttolerance="10"
     gridtolerance="10"
     guidetolerance="10"
     inkscape:pageopacity="0"
     inkscape:pageshadow="2"
     inkscape:window-width="1920"
     inkscape:window-height="1006"
     id="namedview9"
     showgrid="true"
     inkscape:zoom="16"
     inkscape:cx="33.686622"
     inkscape:cy="11.603978"
     inkscape:window-x="1920"
     inkscape:window-y="0"
     inkscape:window-maximized="1"
     inkscape:current-layer="Слой_1"
     inkscape:snap-midpoints="false"
     inkscape:snap-object-midpoints="true"><inkscape:grid
       type="xygrid"
       id="grid2983" /></sodipodi:namedview><path
     d="m 12.016567,1.9135533 c 5.138075,0.160149 8.680116,2.7876175 9.066888,8.1396147 0.0091,11.426109 -0.01096,12.116015 -0.01096,12.116015 l -18.1411354,-0.0416 c 0,0 -0.017187,-8.091477 -0.017187,-12.4406064 0,-4.3491295 3.9643221,-7.9335787 9.1023954,-7.7734253 z"
     id="path3-6-3"
     style="clip-rule:nonzero;opacity:1;fill:#eaeaea;fill-opacity:1;fill-rule:nonzero;color:#000000;display:inline;overflow:visible;visibility:visible;isolation:auto;mix-blend-mode:normal;color-interpolation:sRGB;color-interpolation-filters:linearRGB;solid-color:#000000;solid-opacity:1;stroke:none;stroke-width:0.02656771;stroke-linecap:butt;stroke-linejoin:miter;stroke-miterlimit:4;stroke-dasharray:none;stroke-dashoffset:0;stroke-opacity:1;marker:none;filter-blend-mode:normal;filter-gaussianBlur-deviation:0;color-rendering:auto;image-rendering:auto;shape-rendering:auto;text-rendering:auto;enable-background:accumulate"
     inkscape:connector-curvature="0"
     sodipodi:nodetypes="zccczz" /><path
     style="color:#000000;display:inline;overflow:visible;visibility:visible;fill:#608bba;fill-opacity:1;fill-rule:evenodd;stroke:none;marker:none;enable-background:accumulate;clip-rule:nonzero;opacity:0.73600003;isolation:auto;mix-blend-mode:normal;color-interpolation:sRGB;color-interpolation-filters:linearRGB;solid-color:#000000;solid-opacity:1;stroke-width:1;stroke-linecap:butt;stroke-linejoin:miter;stroke-miterlimit:4;stroke-dasharray:none;stroke-dashoffset:0;stroke-opacity:1;filter-blend-mode:normal;filter-gaussianBlur-deviation:0;color-rendering:auto;image-rendering:auto;shape-rendering:auto;text-rendering:auto"
     d="M 12.017132,0.97690335 C 6.4037938,0.80194084 2.0616925,4.7179454 2.0616914,9.4693582 c 0,4.7514128 0.035683,13.5593828 0.035683,13.5593828 l 19.8038335,-0.03568 c 0,0 0.04562,-0.612513 0.03568,-13.0955096 C 21.514345,4.0505046 17.630469,1.1518659 12.017132,0.97690335 Z m 0,0.92774725 c 5.138075,0.160149 8.676604,2.7836314 9.063377,8.1356284 0.0091,11.42611 0,12.13208 0,12.13208 L 2.9537561,22.136677 c 0,0 -0.035683,-8.104093 -0.035683,-12.4532232 0,-4.3491289 3.960985,-7.9389566 9.0990589,-7.7788032 z"
     id="path3-8-6"
     inkscape:connector-curvature="0" /></svg>

<svg width="24" height="24" viewBox="0 0 24 24" fill="none" xmlns="http://www.w3.org/2000/svg">
<path d="M12.0166 1.91355C17.1546 2.0737 20.6967 4.70117 21.0835 10.0532C21.0926 21.4793 21.0725 22.1692 21.0725 22.1692L2.93136 22.1276C2.93136 22.1276 2.91417 14.0361 2.91417 9.68698C2.91417 5.33785 6.87849 1.7534 12.0166 1.91355L12.0166 1.91355Z" fill="#EAEAEA"/>
<path opacity="0.736" fill-rule="evenodd" clip-rule="evenodd" d="M12.0171 0.976897C6.40379 0.801934 2.06169 4.71794 2.06169 9.46935C2.06169 14.2208 2.09737 23.0287 2.09737 23.0287L21.9012 22.9931C21.9012 22.9931 21.9468 22.3805 21.9369 9.89754C21.5143 4.0505 17.6305 1.15186 12.0171 0.976897ZM12.0171 1.90464C17.1552 2.06479 20.6937 4.68828 21.0805 10.0403C21.0896 21.4664 21.0805 22.1724 21.0805 22.1724L2.95376 22.1367C2.95376 22.1367 2.91807 14.0326 2.91807 9.68345C2.91807 5.33432 6.87906 1.74449 12.0171 1.90464V1.90464Z" fill="#608BBA"/>
</svg>
